assets/1. 1-F/Eight-thirty/Color/Eight-thirty-color.svg

<svg width="100%" height="100%" viewBox="0 0 32 32" fill="none" xmlns="http://www.w3.org/2000/svg">
<path d="M30 16.0112C30 23.7432 23.732 30.0112 16 30.0112C8.26801 30.0112 2 23.7432 2 16.0112C2 8.27918 8.26801 2.01117 16 2.01117C23.732 2.01117 30 8.27918 30 16.0112Z" fill="url(#paint0_radial_18_13591)"/>
<g filter="url(#filter0_f_18_13591)">
<path d="M16.4036 18.5896C16.9963 18.2452 17.3948 17.6035 17.3948 16.8687C17.3948 15.7703 16.5044 14.8798 15.406 14.8798C14.3076 14.8798 13.4172 15.7703 13.4172 16.8687C13.4172 16.8962 13.4178 16.9236 13.4189 16.9509L9.73592 18.9863C9.25762 19.2624 9.09375 19.874 9.36989 20.3523C9.64604 20.8306 10.2576 20.9945 10.7359 20.7183L14.4036 18.6008V24.8641C14.4036 25.4164 14.8514 25.8641 15.4036 25.8641C15.9559 25.8641 16.4036 25.4164 16.4036 24.8641V18.5896Z" fill="#C6C2C9"/>
</g>
<g filter="url(#filter1_i_18_13591)">
<path fill-rule="evenodd" clip-rule="evenodd" d="M16.0288 15.0224C16.5811 15.0224 17.0288 15.4701 17.0288 16.0224V24.0178C17.0288 24.5701 16.5811 25.0178 16.0288 25.0178C15.4765 25.0178 15.0288 24.5701 15.0288 24.0178V16.0224C15.0288 15.4701 15.4765 15.0224 16.0288 15.0224Z" fill="url(#paint1_linear_18_13591)"/>
<path fill-rule="evenodd" clip-rule="evenodd" d="M16.0288 15.0224C16.5811 15.0224 17.0288 15.4701 17.0288 16.0224V24.0178C17.0288 24.5701 16.5811 25.0178 16.0288 25.0178C15.4765 25.0178 15.0288 24.5701 15.0288 24.0178V16.0224C15.0288 15.4701 15.4765 15.0224 16.0288 15.0224Z" fill="url(#paint2_radial_18_13591)"/>
</g>
<path fill-rule="evenodd" clip-rule="evenodd" d="M9.99506 19.506C9.71891 19.0277 9.88279 18.4161 10.3611 18.14L15.5288 15.1564C16.0071 14.8802 16.6187 15.0441 16.8948 15.5224C17.171 16.0007 17.0071 16.6123 16.5288 16.8884L11.3611 19.872C10.8828 20.1482 10.2712 19.9843 9.99506 19.506Z" fill="url(#paint3_linear_18_13591)"/>
<path fill-rule="evenodd" clip-rule="evenodd" d="M9.99506 19.506C9.71891 19.0277 9.88279 18.4161 10.3611 18.14L15.5288 15.1564C16.0071 14.8802 16.6187 15.0441 16.8948 15.5224C17.171 16.0007 17.0071 16.6123 16.5288 16.8884L11.3611 19.872C10.8828 20.1482 10.2712 19.9843 9.99506 19.506Z" fill="url(#paint4_linear_18_13591)"/>
<path fill-rule="evenodd" clip-rule="evenodd" d="M9.99506 19.506C9.71891 19.0277 9.88279 18.4161 10.3611 18.14L15.5288 15.1564C16.0071 14.8802 16.6187 15.0441 16.8948 15.5224C17.171 16.0007 17.0071 16.6123 16.5288 16.8884L11.3611 19.872C10.8828 20.1482 10.2712 19.9843 9.99506 19.506Z" fill="url(#paint5_radial_18_13591)"/>
<path fill-rule="evenodd" clip-rule="evenodd" d="M9.99506 19.506C9.71891 19.0277 9.88279 18.4161 10.3611 18.14L15.5288 15.1564C16.0071 14.8802 16.6187 15.0441 16.8948 15.5224C17.171 16.0007 17.0071 16.6123 16.5288 16.8884L11.3611 19.872C10.8828 20.1482 10.2712 19.9843 9.99506 19.506Z" fill="url(#paint6_linear_18_13591)"/>
<g filter="url(#filter2_ii_18_13591)">
<path fill-rule="evenodd" clip-rule="evenodd" d="M16 27.0112C22.0751 27.0112 27 22.0863 27 16.0112C27 9.93604 22.0751 5.01117 16 5.01117C9.92487 5.01117 5 9.93604 5 16.0112C5 22.0863 9.92487 27.0112 16 27.0112ZM16 30.0112C23.732 30.0112 30 23.7432 30 16.0112C30 8.27918 23.732 2.01117 16 2.01117C8.26801 2.01117 2 8.27918 2 16.0112C2 23.7432 8.26801 30.0112 16 30.0112Z" fill="url(#paint7_linear_18_13591)"/>
</g>
<path d="M18.02 16.0223C18.02 17.1207 17.1296 18.0112 16.0312 18.0112C14.9328 18.0112 14.0424 17.1207 14.0424 16.0223C14.0424 14.9239 14.9328 14.0335 16.0312 14.0335C17.1296 14.0335 18.02 14.9239 18.02 16.0223Z" fill="url(#paint8_radial_18_13591)"/>
<path d="M18.02 16.0223C18.02 17.1207 17.1296 18.0112 16.0312 18.0112C14.9328 18.0112 14.0424 17.1207 14.0424 16.0223C14.0424 14.9239 14.9328 14.0335 16.0312 14.0335C17.1296 14.0335 18.02 14.9239 18.02 16.0223Z" fill="url(#paint9_radial_18_13591)"/>
<defs>
<filter id="filter0_f_18_13591" x="7.73575" y="13.3798" width="11.1591" height="13.9843" filterUnits="userSpaceOnUse" color-interpolation-filters="sRGB">
<feFlood flood-opacity="0" result="BackgroundImageFix"/>
<feBlend mode="normal" in="SourceGraphic" in2="BackgroundImageFix" result="shape"/>
<feGaussianBlur stdDeviation="0.75" result="effect1_foregroundBlur_18_13591"/>
</filter>
<filter id="filter1_i_18_13591" x="15.0288" y="15.0224" width="2.6" height="9.99539" filterUnits="userSpaceOnUse" color-interpolation-filters="sRGB">
<feFlood flood-opacity="0" result="BackgroundImageFix"/>
<feBlend mode="normal" in="SourceGraphic" in2="BackgroundImageFix" result="shape"/>
<feColorMatrix in="SourceAlpha" type="matrix" values="0 0 0 0 0 0 0 0 0 0 0 0 0 0 0 0 0 0 127 0" result="hardAlpha"/>
<feOffset dx="0.6"/>
<feGaussianBlur stdDeviation="0.425"/>
<feComposite in2="hardAlpha" operator="arithmetic" k2="-1" k3="1"/>
<feColorMatrix type="matrix" values="0 0 0 0 0.635294 0 0 0 0 0.227451 0 0 0 0 0.403922 0 0 0 1 0"/>
<feBlend mode="normal" in2="shape" result="effect1_innerShadow_18_13591"/>
</filter>
<filter id="filter2_ii_18_13591" x="1.6" y="1.61117" width="28.8" height="28.8" filterUnits="userSpaceOnUse" color-interpolation-filters="sRGB">
<feFlood flood-opacity="0" result="BackgroundImageFix"/>
<feBlend mode="normal" in="SourceGraphic" in2="BackgroundImageFix" result="shape"/>
<feColorMatrix in="SourceAlpha" type="matrix" values="0 0 0 0 0 0 0 0 0 0 0 0 0 0 0 0 0 0 127 0" result="hardAlpha"/>
<feOffset dx="0.4" dy="-0.4"/>
<feGaussianBlur stdDeviation="0.3"/>
<feComposite in2="hardAlpha" operator="arithmetic" k2="-1" k3="1"/>
<feColorMatrix type="matrix" values="0 0 0 0 0.282353 0 0 0 0 0.254902 0 0 0 0 0.313726 0 0 0 1 0"/>
<feBlend mode="normal" in2="shape" result="effect1_innerShadow_18_13591"/>
<feColorMatrix in="SourceAlpha" type="matrix" values="0 0 0 0 0 0 0 0 0 0 0 0 0 0 0 0 0 0 127 0" result="hardAlpha"/>
<feOffset dx="-0.4" dy="0.4"/>
<feGaussianBlur stdDeviation="0.3"/>
<feComposite in2="hardAlpha" operator="arithmetic" k2="-1" k3="1"/>
<feColorMatrix type="matrix" values="0 0 0 0 0.533333 0 0 0 0 0.533333 0 0 0 0 0.533333 0 0 0 1 0"/>
<feBlend mode="normal" in2="effect1_innerShadow_18_13591" result="effect2_innerShadow_18_13591"/>
</filter>
<radialGradient id="paint0_radial_18_13591" cx="0" cy="0" r="1" gradientUnits="userSpaceOnUse" gradientTransform="translate(9.57405 24.5094) rotate(-46.2124) scale(25.2966)">
<stop offset="0.598155" stop-color="#DDDADF"/>
<stop offset="1" stop-color="#BDBABF"/>
</radialGradient>
<linearGradient id="paint1_linear_18_13591" x1="16.0288" y1="15.0224" x2="16.0288" y2="25.0178" gradientUnits="userSpaceOnUse">
<stop stop-color="#F83F4C"/>
<stop offset="1" stop-color="#F74093"/>
</linearGradient>
<radialGradient id="paint2_radial_18_13591" cx="0" cy="0" r="1" gradientUnits="userSpaceOnUse" gradientTransform="translate(16.1875 17.741) rotate(146.437) scale(1.95012 1.33455)">
<stop offset="0.293124" stop-color="#911A57"/>
<stop offset="1" stop-color="#911A57" stop-opacity="0"/>
</radialGradient>
<linearGradient id="paint3_linear_18_13591" x1="9.99506" y1="19.506" x2="15.0279" y2="16.6003" gradientUnits="userSpaceOnUse">
<stop stop-color="#32183D"/>
<stop offset="1" stop-color="#2C3A65"/>
</linearGradient>
<linearGradient id="paint4_linear_18_13591" x1="13.1193" y1="18.8569" x2="12.6193" y2="17.9909" gradientUnits="userSpaceOnUse">
<stop stop-color="#2E2840"/>
<stop offset="1" stop-color="#2E2840" stop-opacity="0"/>
</linearGradient>
<radialGradient id="paint5_radial_18_13591" cx="0" cy="0" r="1" gradientUnits="userSpaceOnUse" gradientTransform="translate(10.0302 18.7821) rotate(-30) scale(5.73026 0.815281)">
<stop stop-color="#50375F"/>
<stop offset="1" stop-color="#50375F" stop-opacity="0"/>
</radialGradient>
<linearGradient id="paint6_linear_18_13591" x1="9.99506" y1="19.506" x2="10.6166" y2="19.1472" gradientUnits="userSpaceOnUse">
<stop stop-color="#3E1846"/>
<stop offset="1" stop-color="#3E1846" stop-opacity="0"/>
</linearGradient>
<linearGradient id="paint7_linear_18_13591" x1="24.5108" y1="4.02466" x2="4.28379" y2="28.5448" gradientUnits="userSpaceOnUse">
<stop stop-color="#6D6B70"/>
<stop offset="1" stop-color="#706C74"/>
</linearGradient>
<radialGradient id="paint8_radial_18_13591" cx="0" cy="0" r="1" gradientUnits="userSpaceOnUse" gradientTransform="translate(17.111 15.5638) rotate(134.039) scale(3.40442)">
<stop stop-color="#C9C6CC"/>
<stop offset="1" stop-color="#928E95"/>
</radialGradient>
<radialGradient id="paint9_radial_18_13591" cx="0" cy="0" r="1" gradientUnits="userSpaceOnUse" gradientTransform="translate(16.5937 15.5158) rotate(139.399) scale(2.88111)">
<stop offset="0.527069" stop-color="#776F7F" stop-opacity="0"/>
<stop offset="1" stop-color="#776F7F"/>
</radialGradient>
</defs>
</svg>

<svg width="100%" height="100%" viewBox="0 0 32 32" xmlns="http://www.w3.org/2000/svg"><path fill="url(#a)" d="M30 16.011c0 7.732-6.268 14-14 14s-14-6.268-14-14 6.268-14 14-14 14 6.268 14 14"/><g filter="url(#b)"><path fill="#C6C2C9" d="M16.404 18.59a1.988 1.988 0 1 0-2.985-1.64l-3.683 2.036a1 1 0 1 0 1 1.732l3.668-2.117v6.263a1 1 0 0 0 2 0z"/></g><g fill-rule="evenodd" clip-rule="evenodd" filter="url(#c)"><path fill="url(#d)" d="M16.029 15.022a1 1 0 0 1 1 1v7.996a1 1 0 1 1-2 0v-7.996a1 1 0 0 1 1-1"/><path fill="url(#e)" d="M16.029 15.022a1 1 0 0 1 1 1v7.996a1 1 0 1 1-2 0v-7.996a1 1 0 0 1 1-1"/></g><path fill="url(#f)" fill-rule="evenodd" d="M9.995 19.506a1 1 0 0 1 .366-1.366l5.168-2.984a1 1 0 1 1 1 1.732l-5.168 2.984a1 1 0 0 1-1.366-.366" clip-rule="evenodd"/><path fill="url(#g)" fill-rule="evenodd" d="M9.995 19.506a1 1 0 0 1 .366-1.366l5.168-2.984a1 1 0 1 1 1 1.732l-5.168 2.984a1 1 0 0 1-1.366-.366" clip-rule="evenodd"/><path fill="url(#h)" fill-rule="evenodd" d="M9.995 19.506a1 1 0 0 1 .366-1.366l5.168-2.984a1 1 0 1 1 1 1.732l-5.168 2.984a1 1 0 0 1-1.366-.366" clip-rule="evenodd"/><path fill="url(#i)" fill-rule="evenodd" d="M9.995 19.506a1 1 0 0 1 .366-1.366l5.168-2.984a1 1 0 1 1 1 1.732l-5.168 2.984a1 1 0 0 1-1.366-.366" clip-rule="evenodd"/><g filter="url(#j)"><path fill="url(#k)" fill-rule="evenodd" d="M16 27.011c6.075 0 11-4.925 11-11s-4.925-11-11-11-11 4.925-11 11 4.925 11 11 11m0 3c7.732 0 14-6.268 14-14s-6.268-14-14-14-14 6.268-14 14 6.268 14 14 14" clip-rule="evenodd"/></g><path fill="url(#l)" d="M18.02 16.022a1.989 1.989 0 1 1-3.978 0 1.989 1.989 0 0 1 3.978 0"/><path fill="url(#m)" d="M18.02 16.022a1.989 1.989 0 1 1-3.978 0 1.989 1.989 0 0 1 3.978 0"/><defs><radialGradient id="a" cx="0" cy="0" r="1" gradientTransform="rotate(-46.212 33.51 1.035)scale(25.2966)" gradientUnits="userSpaceOnUse"><stop offset=".598" stop-color="#DDDADF"/><stop offset="1" stop-color="#BDBABF"/></radialGradient><radialGradient id="e" cx="0" cy="0" r="1" gradientTransform="rotate(146.437 5.419 11.311)scale(1.95012 1.33455)" gradientUnits="userSpaceOnUse"><stop offset=".293" stop-color="#911A57"/><stop offset="1" stop-color="#911A57" stop-opacity="0"/></radialGradient><radialGradient id="h" cx="0" cy="0" r="1" gradientTransform="rotate(-30 40.063 -9.326)scale(5.73026 .81528)" gradientUnits="userSpaceOnUse"><stop stop-color="#50375F"/><stop offset="1" stop-color="#50375F" stop-opacity="0"/></radialGradient><radialGradient id="l" cx="0" cy="0" r="1" gradientTransform="rotate(134.039 5.255 11.41)scale(3.40442)" gradientUnits="userSpaceOnUse"><stop stop-color="#C9C6CC"/><stop offset="1" stop-color="#928E95"/></radialGradient><radialGradient id="m" cx="0" cy="0" r="1" gradientTransform="rotate(139.399 5.427 10.827)scale(2.88111)" gradientUnits="userSpaceOnUse"><stop offset=".527" stop-color="#776F7F" stop-opacity="0"/><stop offset="1" stop-color="#776F7F"/></radialGradient><linearGradient id="d" x1="16.029" x2="16.029" y1="15.022" y2="25.018" gradientUnits="userSpaceOnUse"><stop stop-color="#F83F4C"/><stop offset="1" stop-color="#F74093"/></linearGradient><linearGradient id="f" x1="9.995" x2="15.028" y1="19.506" y2="16.6" gradientUnits="userSpaceOnUse"><stop stop-color="#32183D"/><stop offset="1" stop-color="#2C3A65"/></linearGradient><linearGradient id="g" x1="13.119" x2="12.619" y1="18.857" y2="17.991" gradientUnits="userSpaceOnUse"><stop stop-color="#2E2840"/><stop offset="1" stop-color="#2E2840" stop-opacity="0"/></linearGradient><linearGradient id="i" x1="9.995" x2="10.617" y1="19.506" y2="19.147" gradientUnits="userSpaceOnUse"><stop stop-color="#3E1846"/><stop offset="1" stop-color="#3E1846" stop-opacity="0"/></linearGradient><linearGradient id="k" x1="24.511" x2="4.284" y1="4.025" y2="28.545" gradientUnits="userSpaceOnUse"><stop stop-color="#6D6B70"/><stop offset="1" stop-color="#706C74"/></linearGradient><filter id="b" width="11.159" height="13.984" x="7.736" y="13.38" color-interpolation-filters="sRGB" filterUnits="userSpaceOnUse"><feFlood flood-opacity="0" result="BackgroundImageFix"/><feBlend in="SourceGraphic" in2="BackgroundImageFix" result="shape"/><feGaussianBlur result="effect1_foregroundBlur_18_13591" stdDeviation=".75"/></filter><filter id="c" width="2.6" height="9.995" x="15.029" y="15.022" color-interpolation-filters="sRGB" filterUnits="userSpaceOnUse"><feFlood flood-opacity="0" result="BackgroundImageFix"/><feBlend in="SourceGraphic" in2="BackgroundImageFix" result="shape"/><feColorMatrix in="SourceAlpha" result="hardAlpha" values="0 0 0 0 0 0 0 0 0 0 0 0 0 0 0 0 0 0 127 0"/><feOffset dx=".6"/><feGaussianBlur stdDeviation=".425"/><feComposite in2="hardAlpha" k2="-1" k3="1" operator="arithmetic"/><feColorMatrix values="0 0 0 0 0.635294 0 0 0 0 0.227451 0 0 0 0 0.403922 0 0 0 1 0"/><feBlend in2="shape" result="effect1_innerShadow_18_13591"/></filter><filter id="j" width="28.8" height="28.8" x="1.6" y="1.611" color-interpolation-filters="sRGB" filterUnits="userSpaceOnUse"><feFlood flood-opacity="0" result="BackgroundImageFix"/><feBlend in="SourceGraphic" in2="BackgroundImageFix" result="shape"/><feColorMatrix in="SourceAlpha" result="hardAlpha" values="0 0 0 0 0 0 0 0 0 0 0 0 0 0 0 0 0 0 127 0"/><feOffset dx=".4" dy="-.4"/><feGaussianBlur stdDeviation=".3"/><feComposite in2="hardAlpha" k2="-1" k3="1" operator="arithmetic"/><feColorMatrix values="0 0 0 0 0.282353 0 0 0 0 0.254902 0 0 0 0 0.313726 0 0 0 1 0"/><feBlend in2="shape" result="effect1_innerShadow_18_13591"/><feColorMatrix in="SourceAlpha" result="hardAlpha" values="0 0 0 0 0 0 0 0 0 0 0 0 0 0 0 0 0 0 127 0"/><feOffset dx="-.4" dy=".4"/><feGaussianBlur stdDeviation=".3"/><feComposite in2="hardAlpha" k2="-1" k3="1" operator="arithmetic"/><feColorMatrix values="0 0 0 0 0.533333 0 0 0 0 0.533333 0 0 0 0 0.533333 0 0 0 1 0"/><feBlend in2="effect1_innerShadow_18_13591" result="effect2_innerShadow_18_13591"/></filter></defs></svg>
